X:94404
T:We Will Rock You
Q:1/4=70
K:HP
M:4/4
L:1/8
R:March
U: R = ///
U: r = //
U: V = !accent!
V:M gstem=up stem=down name="Melody" sname="Melody"
V:H gstem=up stem=down name="Harmony" sname="Harmony"
V:C gstem=up stem=down name="C-Harmony" sname=C-Harmony"
V:S gstem=up stem=down dyn=up stafflines=1 clef=perc middle=G name="Snare" sname="Snare" sname="Snare"
V:B gstem=up stem=down clef=none dyn=up name="Bass Drum" sname="BassD"
V:T gstem=up stem=down clef=none dyn=up name="Tenor" sname="Tenor"
V:BB gstem=up stem=down name="Brass Bass" sname="ABCD-C" transpose=-1  octave=-1 clef=bass
V:BC gstem=up stem=down name="Brass Chord" sname="ABCD-D" transpose=-1
V:BD gstem=up stem=down name="Brass Chord 2" sname="ABCD-B" transpose=-1
V:P gstem=up stem=down name="Piano" octave=-1
V:Drums name="drums" sname="drums" 
%%MIDI channel 10
%%MIDI program 0
%%MIDI drummap F 36 %bass drum 1
%%MIDI drummap c 38 %acoustic snare
%%MIDI drummap ^D 44 %pedal hi-hat
%%MIDI drummap ^f 51 %ride cymbal 1
%%MIDI drummap ^g 42 %closed hi hat
%%MIDI drummap ^a 49 %crash cymbal 1
%%MIDI drummap ^b 52 %chinese cymbal
%%MIDI drummap e 50 %high tom
%%MIDI drummap d 48 %hi mid tom
%%MIDI drummap B 45 %low tom
%%MIDI drummap A 41 %low floor tom
%%MIDI Channel 10
%%MIDI vol 100
V:B
%%MIDI channel 11
%%MIDI drumon
%%MIDI vol 10
V:S
%%MIDI channel 11
%%MIDI drumon
%%MIDI vol 10
V:M
%%MIDI program 110
%%MIDI vol 60
V:H
%%MIDI program 110
%%MIDI vol 60
[V:M]|| !ppp!                                               "drum solo"Z | Z | Z | Z || $
[V:H]||      !ppp!                                          "drum solo"Z | Z | Z | Z || $
[V:M]|:{g}d/e/{A}e/d/ {g}e{A}e/d/ {g}e{A}e {g}d/e/{A}e/d/ |{g}e{A}e/d/ {g}e/d/e ag {f}gB/d/ | 
[V:H]|:X |X| 
[V:M]  {g}e/{A}ed/ {g}e>d {g}e{A}e {G}e2 | {g}e/d/{g}d {G}d{g}d/e/ 7{g}B/A/G {g}AB/d/ |  $
[V:H]  X | X |  $
[V:M]  {gf}g2 f2 {gef}e2 d2 | {g}e{A}e z2 z4 |
[V:H]  {gef}e2 d2 {gcd}c2 B2 | {g}c{G}c z2 z4 | 
[V:M]  {gf}g2 f2 {gef}e2 d2 | {g}e{A}e z2 z4 :| $
[V:H]  {gef}e2 d2 {gcd}c2 B2 | {g}c{G}c z2 z4 :| $
[V:M][|{g}d/e/{A}e/d/ {g}e{A}e/d/ {g}e{A}e {g}d/e/{A}e/d/ |{g}e{A}e/d/ {g}e/d/e ag {f}gB/d/ | 
[V:H][|X |X | 
[V:M]  {g}e/{A}ed/ {g}e>d {g}e{A}e {G}e2 | {g}e/d/{g}d {G}d{g}d/e/ {g}B/A/G {g}AB/d/ | $
[V:H]  X| X| $
[V:M]  {gf}g2 f2 {gef}e2 d2 | {g}e{A}e z2 z4 |
[V:H]  {gef}e2 d2 {gcd}c2 B2 | {g}c{G}c z2 z {g}A{d}ce |
[V:M]  {gf}g2 f2 {gef}e2 d2 | {g}e{A}e z2 z4  |]
[V:H]  {gef}e2 d2 {gcd}c2 B2 | {g}c{G}c z2 z4  |] $
V:Drums 
%%MIDI Channel 10
%%MIDI program 14
%%MIDI drumon
%Midi Channel 10/11 designated for DRUMS
% 35 - Acoustic Bass    B0
% 38 - Acoustic Snare   D1
% 39 - Hand Clap        Eb1
% 41 - Floor Tom        F1
% 42 - Closed High hat  F#1
% 43 - High floor tom   G1
% 44 - Pedal High hat   Ab1
% 45 - Low Tom          A1
% 46 - Open hi hat      Bb1
% 47 - Low-mid tom      B1
% 48 - High-mid tom     C2
% 49 - Crash            C#2
% 50 - High Tom         D2
% 51 - Ride             D#2
% 53 - Ride Bell        F2
% 55 - Splash           G2
% 57 - Crash 2          A2
% 59 - Ride 2           B2
% 81 - Triangle         A4
L:1/8
[V:Drums] [| [^gB,,,][^gB,,,]  [^gD,,]^g [^gB,,,][^gB,,,]  [^gD,,]^g| [^gB,,,][^gB,,,]  [^gD,,]^g [^gB,,,][^gB,,,]  [^gD,,]^g | [^gB,,,][^gB,,,]  [^gD,,]^g [^gB,,,][^gB,,,]  [^gD,,]^g | [^gB,,,][^gB,,,]  [^gD,,]^g [^gB,,,][^gB,,,]  [^gD,,]^g ||
[V:Drums] [|:[^gB,,,][^gB,,,]  [^gD,,]^g [^gB,,,][^gB,,,]  [^gD,,]^g | [^gB,,,][^gB,,,]  [^gD,,]^g [^gB,,,][^gB,,,]  [^gD,,]^g | [^gB,,,][^gB,,,]  [^gD,,]^g [^gB,,,][^gB,,,]  [^gD,,]^g | [^gB,,,][^gB,,,]  [^gD,,]^g [^gB,,,][^gB,,,]  [^gD,,]^g |
[V:Drums] [| [^gB,,,][^gB,,,]  [^gD,,]^g [^gB,,,][^gB,,,]  [^gD,,]^g | [^gB,,,][^gB,,,]  [^gD,,]^g [^gB,,,][^gB,,,]  [^gD,,]^g | [^gB,,,][^gB,,,]  [^gD,,]^g [^gB,,,][^gB,,,]  [^gD,,]^g | [^gB,,,][^gB,,,]  [^gD,,]^g [^gB,,,][^gB,,,]  [^gD,,]^g :|]
[V:Drums] [|   [^gB,,,][^gB,,,]  [^gD,,]^g [^gB,,,][^gB,,,]  [^gD,,]^g | [^gB,,,][^gB,,,]  [^gD,,]^g [^gB,,,][^gB,,,]  [^gD,,]^g | [^gB,,,][^gB,,,]  [^gD,,]^g [^gB,,,][^gB,,,]  [^gD,,]^g | [^gFc]^g  [^gD,,]^g [^gFB][^gB]  [^gcC][^gD,,] |
[V:Drums]  | [^gB,,,][^gB,,,]  [^gD,,]^g [^gB,,,][^gB,,,]  [^gD,,]^g| [^gB,,,][^gB,,,]  [^gD,,]^g [^gB,,,][^gB,,,]  [^gD,,]^g | [^gB,,,][^gB,,,]  [^gD,,]^g [^gB,,,][^gB,,,]  [^gD,,]^g | [^gB,,,][^gB,,,]  [^gD,,]^g [^gB,,,][^gB,,,]  [^gD,,]^g :|]
[V:Drums][I:MIDI droneoff][|: "Clumsy Lover" [^gB,,,][^gB,,,]  [^gD,,]^g [^gB,,,][^gB,,,]  [^gD,,]^g | [^gB,,,][^gB,,,]  [^gD,,]^g [^gB,,,][^gB,,,]  [^gD,,]^g | [^gB,,,][^gB,,,]  [^gD,,]^g [^gB,,,][^gB,,,]  [^gD,,]^g | [^gB,,,][^gB,,,]  [^gD,,]^g [^gB,,,][^gB,,,]  [^gD,,]^g :|]
[V:Drums][|: [^gB,,,][^gB,,,]  [^gD,,]^g [^gB,,,][^gB,,,]  [^gD,,]^g | [^gB,,,][^gB,,,]  [^gD,,]^g [^gB,,,][^gB,,,]  [^gD,,]^g | [^gB,,,][^gB,,,]  [^gD,,]^g [^gB,,,][^gB,,,]  [^gD,,]^g | [^gB,,,][^gB,,,]  [^gD,,]^g [^gB,,,][^gB,,,]  [^gD,,]^g :|]
[V:Drums][|: [^gB,,,][^gB,,,]  [^gD,,]^g [^gB,,,][^gB,,,]  [^gD,,]^g | [^gB,,,][^gB,,,]  [^gD,,]^g [^gB,,,][^gB,,,]  [^gD,,]^g | [^gB,,,][^gB,,,]  [^gD,,]^g [^gB,,,][^gB,,,]  [^gD,,]^g | [^gB,,,][^gB,,,]  [^gD,,]^g [^gB,,,][^gB,,,]  [^gD,,]^g :|]
[V:Drums][|: [^gB,,,][^gB,,,]  [^gD,,]^g [^gB,,,][^gB,,,]  [^gD,,]^g | [^gB,,,][^gB,,,]  [^gD,,]^g [^gB,,,][^gB,,,]  [^gD,,]^g | [^gB,,,][^gB,,,]  [^gD,,]^g [^gB,,,][^gB,,,]  [^gD,,]^g | [^gB,,,][^gB,,,]  [^gD,,]^g [^gB,,,][^gB,,,]  [^gD,,]^g :|]
[V:Drums][|: [^gB,,,][^gB,,,]  [^gD,,]^g [^gB,,,][^gB,,,]  [^gD,,]^g | [^gB,,,][^gB,,,]  [^gD,,]^g [^gB,,,][^gB,,,]  [^gD,,]^g | [^gB,,,][^gB,,,]  [^gD,,]^g [^gB,,,][^gB,,,]  [^gD,,]^g | [^gB,,,][^gB,,,]  [^gD,,]^g [^gB,,,][^gB,,,]  [^gD,,]^g :|]
[V:Drums][|: [^gB,,,][^gB,,,]  [^gD,,]^g [^gB,,,][^gB,,,]  [^gD,,]^g | [^gB,,,][^gB,,,]  [^gD,,]^g [^gB,,,][^gB,,,]  [^gD,,]^g | [^gB,,,][^gB,,,]  [^gD,,]^g [^gB,,,][^gB,,,]  [^gD,,]^g | [^gB,,,][^gB,,,]  [^gD,,]^g [^gB,,,][^gB,,,]  [^gD,,]^g :|]

